raw/spot/spot-no-content.svg

<svg width="80" height="80" viewBox="0 0 80 80" fill="none" xmlns="http://www.w3.org/2000/svg">
<path fill-rule="evenodd" clip-rule="evenodd" d="M48.5 8V18C48.5 21.0375 50.9625 23.5 54 23.5H64V66C64 70.4183 60.4183 74 56 74H18C13.5817 74 10 70.4183 10 66V16C10 11.5817 13.5817 8 18 8H48.5ZM51.5 8.01683V18C51.5 19.3807 52.6193 20.5 54 20.5H63.9793C63.8624 19.0986 63.256 17.7765 62.2576 16.7711L55.3083 9.7724C54.2879 8.74475 52.9342 8.12448 51.5 8.01683Z" fill="#E3E7F5"/>
<path d="M62.498 73.4961C69.6777 73.4961 75.498 67.6758 75.498 60.4961C75.498 53.3164 69.6777 47.4961 62.498 47.4961C55.3183 47.4961 49.498 53.3164 49.498 60.4961C49.498 67.6758 55.3183 73.4961 62.498 73.4961Z" stroke="#0066FF" stroke-width="3.5"/>
<path d="M55.7734 60.4961H69.2217" stroke="#0066FF" stroke-width="3.4"/>
<path opacity="0.6" d="M42.6 25H19.4C18.6268 25 18 25.6268 18 26.4V29.6C18 30.3732 18.6268 31 19.4 31H42.6C43.3732 31 44 30.3732 44 29.6V26.4C44 25.6268 43.3732 25 42.6 25Z" fill="#C5CADD"/>
<path opacity="0.6" d="M50.6 39H19.4C18.6268 39 18 39.6268 18 40.4V43.6C18 44.3732 18.6268 45 19.4 45H50.6C51.3732 45 52 44.3732 52 43.6V40.4C52 39.6268 51.3732 39 50.6 39Z" fill="#C5CADD"/>
</svg>

<svg width="80" height="80" viewBox="0 0 80 80" fill="none" xmlns="http://www.w3.org/2000/svg"><path fill-rule="evenodd" clip-rule="evenodd" d="M48.5 8v10a5.5 5.5 0 0 0 5.5 5.5h10V66a8 8 0 0 1-8 8H18a8 8 0 0 1-8-8V16a8 8 0 0 1 8-8h30.5zm3 .017V18a2.5 2.5 0 0 0 2.5 2.5h9.98a6 6 0 0 0-1.722-3.729l-6.95-6.999A6 6 0 0 0 51.5 8.017z" fill="#E3E7F5"/><path d="M62.498 73.496c7.18 0 13-5.82 13-13s-5.82-13-13-13-13 5.82-13 13 5.82 13 13 13z" stroke="#06F" stroke-width="3.5"/><path d="M55.773 60.496h13.449" stroke="#06F" stroke-width="3.4"/><path opacity=".6" d="M42.6 25H19.4a1.4 1.4 0 0 0-1.4 1.4v3.2a1.4 1.4 0 0 0 1.4 1.4h23.2a1.4 1.4 0 0 0 1.4-1.4v-3.2a1.4 1.4 0 0 0-1.4-1.4zM50.6 39H19.4a1.4 1.4 0 0 0-1.4 1.4v3.2a1.4 1.4 0 0 0 1.4 1.4h31.2a1.4 1.4 0 0 0 1.4-1.4v-3.2a1.4 1.4 0 0 0-1.4-1.4z" fill="#C5CADD"/></svg>
